;START_OF_HEADER
;HEADER_VERSION:0.1
;FLAVOR:Griffin
;GENERATOR.NAME:Cura_SteamEngine
;GENERATOR.VERSION:4.5.0
;GENERATOR.BUILD_DATE:2020-02-25
;TARGET_MACHINE.NAME:Ultimaker S5
;EXTRUDER_TRAIN.0.INITIAL_TEMPERATURE:200
;EXTRUDER_TRAIN.0.MATERIAL.VOLUME_USED:4073
;EXTRUDER_TRAIN.0.MATERIAL.GUID:506c9f0d-e3aa-4bd4-b2d2-23e2425b1aa9
;EXTRUDER_TRAIN.0.NOZZLE.DIAMETER:0.4
;EXTRUDER_TRAIN.0.NOZZLE.NAME:AA 0.4
;BUILD_PLATE.TYPE:glass
;BUILD_PLATE.INITIAL_TEMPERATURE:60
;BUILD_VOLUME.TEMPERATURE:28
;PRINT.TIME:3927
;PRINT.GROUPS:1
;PRINT.SIZE.MIN.X:148.07
;PRINT.SIZE.MIN.Y:88.07
;PRINT.SIZE.MIN.Z:0.2
;PRINT.SIZE.MAX.X:181.93
;PRINT.SIZE.MAX.Y:151.93
;PRINT.SIZE.MAX.Z:10
;END_OF_HEADER
;Generated with Cura_SteamEngine 4.5.0
T0
M82 ;absolute extrusion mode

G92 E0
M109 S200
G280 S1
G0 Z20.001
G1 F1500 E-6.5
;LAYER_COUNT:99
;LAYER:0
M107
M204 S625
M205 X10 Y10
G1 F600 Z2.2
G0 F2571.4 X180.954 Y148.547 Z2.2
M204 S500
M205 X5 Y5
;TYPE:SKIRT
G1 F600 Z0.2
G1 F1500 E0
G1 F1200 X180.539 Y149.165 E0.0098
G1 X180.06 Y149.735 E0.01961
G1 X179.523 Y150.25 E0.0294
G1 X178.934 Y150.705 E0.0392
G1 X178.3 Y151.094 E0.049
G1 X177.627 Y151.413 E0.0588
G1 X176.924 Y151.658 E0.06861
G1 X176.199 Y151.826 E0.07841
G1 X175 Y151.93 E0.09425
G1 X155 Y151.93 E0.3576
G1 X154.257 Y151.89 E0.3674
G1 X153.522 Y151.771 E0.3772
G1 X152.804 Y151.573 E0.38701
G1 X152.112 Y151.3 E0.3968
G1 X151.453 Y150.954 E0.40661
G1 X150.835 Y150.539 E0.41641
G1 X150.265 Y150.06 E0.42621
G1 X149.75 Y149.523 E0.43601
G1 X149.295 Y148.934 E0.44581
G1 X148.906 Y148.3 E0.4556
G1 X148.587 Y147.627 E0.46541
G1 X148.342 Y146.924 E0.47521
G1 X148.174 Y146.199 E0.48501
G1 X148.07 Y145 E0.50086
G1 X148.07 Y95 E1.15923
G1 X148.11 Y94.257 E1.16903
G1 X148.229 Y93.522 E1.17883
G1 X148.427 Y92.804 E1.18864
G1 X148.7 Y92.112 E1.19843
G1 X149.046 Y91.453 E1.20823
G1 X149.461 Y90.835 E1.21803
G1 X149.94 Y90.265 E1.22784
G1 X150.477 Y89.75 E1.23763
G1 X151.066 Y89.295 E1.24743
G1 X151.7 Y88.906 E1.25723
G1 X152.373 Y88.587 E1.26704
G1 X153.076 Y88.342 E1.27684
G1 X153.801 Y88.174 E1.28664
G1 X155 Y88.07 E1.30248
G1 X175 Y88.07 E1.56583
G1 X176.478 Y88.229 E1.58541
G1 X177.196 Y88.427 E1.59521
G1 X177.888 Y88.7 E1.60501
G1 X178.547 Y89.046 E1.61481
G1 X179.165 Y89.461 E1.62461
G1 X179.735 Y89.94 E1.63441
G1 X180.25 Y90.477 E1.64421
G1 X180.705 Y91.066 E1.65401
G1 X181.094 Y91.7 E1.66381
G1 X181.413 Y92.373 E1.67361
G1 X181.658 Y93.076 E1.68342
G1 X181.826 Y93.801 E1.69322
G1 X181.93 Y95 E1.70906
G1 X181.93 Y145 E2.36743
G1 X181.89 Y145.743 E2.37723
G1 X181.771 Y146.478 E2.38703
G1 X181.573 Y147.196 E2.39684
G1 X181.3 Y147.888 E2.40664
G1 X180.954 Y148.547 E2.41644
M204 S625
M205 X10 Y10
G0 F2571.4 X180.535 Y148.427
M204 S500
M205 X5 Y5
G1 F1200 X180.122 Y149.018 E2.42593
G1 X179.646 Y149.56 E2.43543
G1 X179.113 Y150.046 E2.44493
G1 X178.529 Y150.47 E2.45443
G1 X177.902 Y150.827 E2.46393
G1 X177.24 Y151.113 E2.47342
G1 X176.55 Y151.323 E2.48292
G1 X175.841 Y151.455 E2.49242
G1 X175 Y151.51 E2.50352
G1 X155 Y151.51 E2.76686
G1 X154.28 Y151.47 E2.77636
G1 X153.568 Y151.351 E2.78586
G1 X152.874 Y151.153 E2.79537
G1 X152.207 Y150.88 E2.80486
G1 X151.573 Y150.535 E2.81436
G1 X150.982 Y150.122 E2.82385
G1 X150.44 Y149.646 E2.83335
G1 X149.954 Y149.113 E2.84285
G1 X149.53 Y148.529 E2.85235
G1 X149.173 Y147.902 E2.86185
G1 X148.887 Y147.24 E2.87135
G1 X148.677 Y146.55 E2.88085
G1 X148.545 Y145.841 E2.89034
G1 X148.49 Y145 E2.90144
G1 X148.49 Y95 E3.55981
G1 X148.53 Y94.28 E3.5693
G1 X148.649 Y93.568 E3.57881
G1 X148.847 Y92.874 E3.58831
G1 X149.12 Y92.207 E3.5978
G1 X149.465 Y91.573 E3.60731
G1 X149.878 Y90.982 E3.6168
G1 X150.354 Y90.44 E3.6263
G1 X150.887 Y89.954 E3.6358
G1 X151.471 Y89.53 E3.6453
G1 X152.098 Y89.173 E3.6548
G1 X152.76 Y88.887 E3.66429
G1 X153.45 Y88.677 E3.67379
G1 X154.159 Y88.545 E3.68329
G1 X155 Y88.49 E3.69438
G1 X175 Y88.49 E3.95773
G1 X176.432 Y88.649 E3.9767
G1 X177.126 Y88.847 E3.98621
G1 X177.793 Y89.12 E3.9957
G1 X178.427 Y89.465 E4.0052
G1 X179.018 Y89.878 E4.01469
G1 X179.56 Y90.354 E4.02419
G1 X180.046 Y90.887 E4.03369
G1 X180.47 Y91.471 E4.04319
G1 X180.827 Y92.098 E4.05269
G1 X181.113 Y92.76 E4.06219
G1 X181.323 Y93.45 E4.07169
G1 X181.455 Y94.159 E4.08118
G1 X181.51 Y95 E4.09228
G1 X181.51 Y145 E4.75065
G1 X181.47 Y145.72 E4.76014
G1 X181.351 Y146.432 E4.76965
G1 X181.153 Y147.126 E4.77915
G1 X180.88 Y147.793 E4.78864
G1 X180.535 Y148.427 E4.79815
M204 S625
M205 X10 Y10
G0 F2571.4 X180.117 Y148.302
M204 S500
M205 X5 Y5
G1 F1200 X179.705 Y148.866 E4.80734
G1 X179.232 Y149.379 E4.81653
G1 X178.704 Y149.834 E4.82571
G1 X178.127 Y150.226 E4.83489
G1 X177.508 Y150.549 E4.84409
G1 X176.857 Y150.8 E4.85327
G1 X176.181 Y150.974 E4.86247
G1 X175.49 Y151.07 E4.87165
G1 X155 Y151.09 E5.14145
G1 X154.303 Y151.05 E5.15064
G1 X153.616 Y150.931 E5.15982
G1 X152.947 Y150.733 E5.16901
G1 X152.304 Y150.461 E5.1782
G1 X151.698 Y150.117 E5.18738
G1 X151.134 Y149.705 E5.19658
G1 X150.621 Y149.232 E5.20576
G1 X150.166 Y148.704 E5.21494
G1 X149.774 Y148.127 E5.22413
G1 X149.451 Y147.508 E5.23332
G1 X149.2 Y146.857 E5.24251
G1 X149.026 Y146.181 E5.2517
G1 X148.93 Y145.49 E5.26089
G1 X148.91 Y95 E5.92571
G1 X148.95 Y94.303 E5.9349
G1 X149.069 Y93.616 E5.94408
G1 X149.267 Y92.947 E5.95327
G1 X149.539 Y92.304 E5.96246
G1 X149.883 Y91.698 E5.97164
G1 X150.295 Y91.134 E5.98083
G1 X150.768 Y90.621 E5.99002
G1 X151.296 Y90.166 E5.9992
G1 X151.873 Y89.774 E6.00838
G1 X152.492 Y89.451 E6.01758
G1 X153.143 Y89.2 E6.02676
G1 X153.819 Y89.026 E6.03595
G1 X154.51 Y88.93 E6.04514
G1 X175 Y88.91 E6.31494
G1 X176.384 Y89.069 E6.33328
G1 X177.053 Y89.267 E6.34247
G1 X177.696 Y89.539 E6.35166
G1 X178.302 Y89.883 E6.36084
G1 X178.866 Y90.295 E6.37004
G1 X179.379 Y90.768 E6.37922
G1 X179.834 Y91.296 E6.3884
G1 X180.226 Y91.873 E6.39759
G1 X180.549 Y92.492 E6.40678
G1 X180.8 Y93.143 E6.41597
G1 X180.974 Y93.819 E6.42516
G1 X181.07 Y94.51 E6.43434
G1 X181.09 Y145 E7.09917
G1 X181.05 Y145.697 E7.10836
G1 X180.931 Y146.384 E7.11754
G1 X180.733 Y147.053 E7.12673
G1 X180.461 Y147.696 E7.13592
G1 X180.117 Y148.302 E7.1451
M204 S625
M205 X10 Y10
G0 F2571.4 X179.699 Y148.173
M204 S500
M205 X5 Y5
G1 F1200 X179.29 Y148.708 E7.15396
G1 X178.82 Y149.19 E7.16283
G1 X178.296 Y149.613 E7.17169
G1 X177.726 Y149.972 E7.18056
G1 X177.118 Y150.26 E7.18942
G1 X176.48 Y150.474 E7.19828
G1 X175.82 Y150.61 E7.20716
G1 X175 Y150.67 E7.21798
G1 X155 Y150.67 E7.48133
G1 X154.328 Y150.63 E7.49019
G1 X153.665 Y150.511 E7.49906
G1 X153.022 Y150.314 E7.50792
G1 X152.406 Y150.042 E7.51679
G1 X151.827 Y149.699 E7.52565
G1 X151.292 Y149.29 E7.53451
G1 X150.81 Y148.82 E7.54338
G1 X150.387 Y148.296 E7.55225
G1 X150.028 Y147.726 E7.56112
G1 X149.74 Y147.118 E7.56997
G1 X149.526 Y146.48 E7.57884
G1 X149.39 Y145.82 E7.58771
G1 X149.33 Y145 E7.59853
G1 X149.33 Y95 E8.2569
G1 X149.37 Y94.328 E8.26577
G1 X149.489 Y93.665 E8.27464
G1 X149.686 Y93.022 E8.28349
G1 X149.958 Y92.406 E8.29236
G1 X150.301 Y91.827 E8.30122
G1 X150.71 Y91.292 E8.31009
G1 X151.18 Y90.81 E8.31895
G1 X151.704 Y90.387 E8.32782
G1 X152.274 Y90.028 E8.33669
G1 X152.882 Y89.74 E8.34555
G1 X153.52 Y89.526 E8.35441
G1 X154.18 Y89.39 E8.36328
G1 X155 Y89.33 E8.37411
G1 X175 Y89.33 E8.63746
G1 X176.335 Y89.489 E8.65516
G1 X176.978 Y89.686 E8.66401
G1 X177.594 Y89.958 E8.67288
G1 X178.173 Y90.301 E8.68174
G1 X178.708 Y90.71 E8.69061
G1 X179.19 Y91.18 E8.69947
G1 X179.613 Y91.704 E8.70834
G1 X179.972 Y92.274 E8.71721
G1 X180.26 Y92.882 E8.72607
G1 X180.474 Y93.52 E8.73493
G1 X180.61 Y94.18 E8.7438
G1 X180.67 Y95 E8.75463
G1 X180.67 Y145 E9.413
G1 X180.63 Y145.672 E9.42186
G1 X180.511 Y146.335 E9.43073
G1 X180.314 Y146.978 E9.43959
G1 X180.042 Y147.594 E9.44845
G1 X179.699 Y148.173 E9.45732
M204 S625
M205 X10 Y10
G0 F2571.4 X179.623 Y147.489
M204 S500
M205 X5 Y5
G1 F1200 X179.281 Y148.039 E9.46584
G1 X178.874 Y148.543 E9.47437
G1 X178.408 Y148.993 E9.4829
G1 X177.891 Y149.382 E9.49142
G1 X177.329 Y149.705 E9.49996
G1 X176.732 Y149.956 E9.50849
G1 X176.108 Y150.132 E9.51702
G1 X175.468 Y150.229 E9.52555
G1 X155 Y150.25 E9.79506
G1 X154.353 Y150.21 E9.80359
G1 X153.717 Y150.091 E9.81211
G1 X153.1 Y149.894 E9.82064
G1 X152.511 Y149.623 E9.82918
G1 X151.961 Y149.281 E9.83771
G1 X151.457 Y148.874 E9.84624
G1 X151.007 Y148.408 E9.85477
G1 X150.618 Y147.891 E9.86328
G1 X150.295 Y147.329 E9.87182
G1 X150.044 Y146.732 E9.88035
G1 X149.868 Y146.108 E9.88888
G1 X149.771 Y145.468 E9.89741
G1 X149.75 Y95 E10.56194
G1 X149.79 Y94.353 E10.57047
G1 X149.909 Y93.717 E10.57899
G1 X150.106 Y93.1 E10.58752
G1 X150.377 Y92.511 E10.59606
G1 X150.719 Y91.961 E10.60459
G1 X151.126 Y91.457 E10.61312
G1 X151.592 Y91.007 E10.62165
G1 X152.109 Y90.618 E10.63017
G1 X152.671 Y90.295 E10.6387
G1 X153.268 Y90.044 E10.64723
G1 X153.892 Y89.868 E10.65577
G1 X154.532 Y89.771 E10.66429
G1 X175 Y89.75 E10.9338
G1 X176.283 Y89.909 E10.95082
G1 X176.9 Y90.106 E10.95935
G1 X177.489 Y90.377 E10.96789
G1 X178.039 Y90.719 E10.97642
G1 X178.543 Y91.126 E10.98495
G1 X178.993 Y91.592 E10.99348
G1 X179.382 Y92.109 E11.002
G1 X179.705 Y92.671 E11.01053
G1 X179.956 Y93.268 E11.01906
G1 X180.132 Y93.892 E11.0276
G1 X180.229 Y94.532 E11.03612
G1 X180.25 Y145 E11.70065
G1 X180.21 Y145.647 E11.70919
G1 X180.091 Y146.283 E11.71771
G1 X179.894 Y146.9 E11.72624
G1 X179.623 Y147.489 E11.73477
M204 S625
M205 X10 Y10
G0 F2571.4 X179.204 Y147.378
M204 S500
M205 X5 Y5
G1 F1200 X178.864 Y147.898 E11.74295
G1 X178.46 Y148.37 E11.75113
G1 X177.998 Y148.787 E11.75933
G1 X177.488 Y149.14 E11.7675
G1 X176.936 Y149.425 E11.77568
G1 X176.351 Y149.637 E11.78387
G1 X175.745 Y149.772 E11.79204
G1 X175 Y149.83 E11.80188
G1 X155 Y149.83 E12.06523
G1 X154.38 Y149.79 E12.07341
G1 X153.77 Y149.671 E12.0816
G1 X153.181 Y149.474 E12.08977
G1 X152.622 Y149.204 E12.09795
G1 X152.102 Y148.864 E12.10613
G1 X151.63 Y148.46 E12.11431
G1 X151.213 Y147.998 E12.1225
G1 X150.86 Y147.488 E12.13067
G1 X150.575 Y146.936 E12.13885
G1 X150.363 Y146.351 E12.14704
G1 X150.228 Y145.745 E12.15522
G1 X150.17 Y145 E12.16506
G1 X150.17 Y95 E12.82343
G1 X150.21 Y94.38 E12.83161
G1 X150.329 Y93.77 E12.83979
G1 X150.526 Y93.181 E12.84797
G1 X150.796 Y92.622 E12.85614
G1 X151.136 Y92.102 E12.86432
G1 X151.54 Y91.63 E12.87251
G1 X152.002 Y91.213 E12.8807
G1 X152.512 Y90.86 E12.88887
G1 X153.064 Y90.575 E12.89705
G1 X153.649 Y90.363 E12.90524
G1 X154.255 Y90.228 E12.91342
G1 X155 Y90.17 E12.92326
G1 X175 Y90.17 E13.1866
G1 X176.23 Y90.329 E13.20293
G1 X176.819 Y90.526 E13.21111
G1 X177.378 Y90.796 E13.21929
G1 X177.898 Y91.136 E13.22747
G1 X178.37 Y91.54 E13.23565
G1 X178.787 Y92.002 E13.24384
G1 X179.14 Y92.512 E13.25201
G1 X179.425 Y93.064 E13.26019
G1 X179.637 Y93.649 E13.26838
G1 X179.772 Y94.255 E13.27656
G1 X179.83 Y95 E13.2864
G1 X179.83 Y145 E13.94477
G1 X179.79 Y145.62 E13.95295
G1 X179.671 Y146.23 E13.96113
G1 X179.474 Y146.819 E13.96931
G1 X179.204 Y147.378 E13.97748
M204 S625
M205 X10 Y10
G0 F2571.4 X178.785 Y147.263
M204 S500
M205 X5 Y5
G1 F1200 X178.447 Y147.751 E13.9853
G1 X178.046 Y148.189 E13.99312
G1 X177.59 Y148.569 E14.00093
G1 X177.087 Y148.885 E14.00876
G1 X176.547 Y149.13 E14.01656
G1 X175.978 Y149.3 E14.02438
G1 X175.392 Y149.393 E14.0322
G1 X155 Y149.41 E14.30071
G1 X154.408 Y149.37 E14.30852
G1 X153.826 Y149.251 E14.31634
G1 X153.266 Y149.055 E14.32415
G1 X152.737 Y148.785 E14.33197
G1 X152.249 Y148.447 E14.33979
G1 X151.811 Y148.046 E14.34761
G1 X151.431 Y147.59 E14.35542
G1 X151.115 Y147.087 E14.36325
G1 X150.87 Y146.547 E14.37105
G1 X150.7 Y145.978 E14.37887
G1 X150.607 Y145.392 E14.38669
G1 X150.59 Y95 E15.05022
G1 X150.63 Y94.408 E15.05803
G1 X150.749 Y93.826 E15.06585
G1 X150.945 Y93.266 E15.07367
G1 X151.215 Y92.737 E15.08149
G1 X151.553 Y92.249 E15.0893
G1 X151.954 Y91.811 E15.09712
G1 X152.41 Y91.431 E15.10494
G1 X152.913 Y91.115 E15.11276
G1 X153.453 Y90.87 E15.12057
G1 X154.022 Y90.7 E15.12839
G1 X154.608 Y90.607 E15.1362
G1 X175 Y90.59 E15.40471
G1 X176.174 Y90.749 E15.42031
G1 X176.734 Y90.945 E15.42812
G1 X177.263 Y91.215 E15.43594
G1 X177.751 Y91.553 E15.44376
G1 X178.189 Y91.954 E15.45158
G1 X178.569 Y92.41 E15.45939
G1 X178.885 Y92.913 E15.46721
G1 X179.13 Y93.453 E15.47502
G1 X179.3 Y94.022 E15.48284
G1 X179.393 Y94.608 E15.49065
G1 X179.41 Y145 E16.15419
G1 X179.37 Y145.592 E16.162
G1 X179.251 Y146.174 E16.16982
G1 X179.055 Y146.734 E16.17763
G1 X178.785 Y147.263 E16.18545
M204 S625
M205 X10 Y10
G0 F2571.4 X178.367 Y147.141
M204 S500
M205 X5 Y5
G1 F1200 X178.031 Y147.595 E16.19289
G1 X177.634 Y147.997 E16.20033
G1 X177.185 Y148.339 E16.20776
G1 X176.691 Y148.614 E16.21521
G1 X176.164 Y148.816 E16.22264
G1 X175.614 Y148.942 E16.23007
G1 X175 Y148.99 E16.23818
G1 X155 Y148.99 E16.50152
G1 X154.437 Y148.95 E16.50896
G1 X153.885 Y148.831 E16.51639
G1 X153.355 Y148.635 E16.52383
G1 X152.859 Y148.367 E16.53126
G1 X152.405 Y148.031 E16.53869
G1 X152.003 Y147.634 E16.54613
G1 X151.661 Y147.185 E16.55356
G1 X151.386 Y146.691 E16.56101
G1 X151.184 Y146.164 E16.56844
G1 X151.058 Y145.614 E16.57587
G1 X151.01 Y145 E16.58398
G1 X151.01 Y95 E17.24235
G1 X151.05 Y94.437 E17.24978
G1 X151.169 Y93.885 E17.25722
G1 X151.365 Y93.355 E17.26466
G1 X151.633 Y92.859 E17.27208
G1 X151.969 Y92.405 E17.27952
G1 X152.366 Y92.003 E17.28696
G1 X152.815 Y91.661 E17.29439
G1 X153.309 Y91.386 E17.30183
G1 X153.836 Y91.184 E17.30927
G1 X154.386 Y91.058 E17.31669
G1 X155 Y91.01 E17.3248
G1 X175 Y91.01 E17.58815
G1 X176.115 Y91.169 E17.60298
G1 X176.645 Y91.365 E17.61042
G1 X177.141 Y91.633 E17.61785
G1 X177.595 Y91.969 E17.62528
G1 X177.997 Y92.366 E17.63272
G1 X178.339 Y92.815 E17.64015
G1 X178.614 Y93.309 E17.6476
G1 X178.816 Y93.836 E17.65503
G1 X178.942 Y94.386 E17.66246
G1 X178.99 Y95 E17.67057
G1 X178.99 Y145 E18.32894
G1 X178.95 Y145.563 E18.33637
G1 X178.831 Y146.115 E18.34381
G1 X178.635 Y146.645 E18.35125
G1 X178.367 Y147.141 E18.35867
M204 S625
M205 X10 Y10
G0 F2571.4 X177.949 Y147.013
M204 S500
M205 X5 Y5
G1 F1200 X177.615 Y147.43 E18.36571
G1 X177.224 Y147.793 E18.37273
G1 X176.782 Y148.093 E18.37976
G1 X176.301 Y148.325 E18.3868
G1 X175.79 Y148.481 E18.39383
G1 X175 Y148.57 E18.4043
G1 X155 Y148.57 E18.66765
G1 X154.467 Y148.53 E18.67469
G1 X153.947 Y148.411 E18.68171
G1 X153.45 Y148.216 E18.68874
G1 X152.987 Y147.949 E18.69578
G1 X152.57 Y147.615 E18.70281
G1 X152.207 Y147.224 E18.70984
G1 X151.907 Y146.782 E18.71687
G1 X151.675 Y146.301 E18.7239
G1 X151.519 Y145.79 E18.73094
G1 X151.43 Y145 E18.74141
G1 X151.43 Y95 E19.39978
G1 X151.47 Y94.467 E19.40681
G1 X151.589 Y93.947 E19.41384
G1 X151.784 Y93.45 E19.42087
G1 X152.051 Y92.987 E19.4279
G1 X152.385 Y92.57 E19.43494
G1 X152.776 Y92.207 E19.44196
G1 X153.218 Y91.907 E19.449
G1 X153.699 Y91.675 E19.45603
G1 X154.21 Y91.519 E19.46307
G1 X155 Y91.43 E19.47353
G1 X175 Y91.43 E19.73688
G1 X176.053 Y91.589 E19.7509
G1 X176.55 Y91.784 E19.75793
G1 X177.013 Y92.051 E19.76497
G1 X177.43 Y92.385 E19.77201
G1 X177.793 Y92.776 E19.77903
G1 X178.093 Y93.218 E19.78607
G1 X178.325 Y93.699 E19.7931
G1 X178.481 Y94.21 E19.80013
G1 X178.57 Y95 E19.8106
G1 X178.57 Y145 E20.46897
G1 X178.53 Y145.533 E20.47601
G1 X178.411 Y146.053 E20.48303
G1 X178.216 Y146.55 E20.49006
G1 X177.949 Y147.013 E20.4971
M204 S625
M205 X10 Y10
G0 F2571.4 X177.797 Y146.45
M204 S500
M205 X5 Y5
G1 F1200 X177.531 Y146.875 E20.5037
G1 X177.201 Y147.253 E20.51031
G1 X176.816 Y147.574 E20.51691
G1 X176.384 Y147.83 E20.52352
G1 X175.917 Y148.013 E20.53013
G1 X175.428 Y148.121 E20.53672
G1 X175 Y148.15 E20.54237
G1 X155 Y148.15 E20.80572
G1 X154.5 Y148.11 E20.81232
G1 X154.013 Y147.991 E20.81892
G1 X153.55 Y147.797 E20.82553
G1 X153.125 Y147.531 E20.83213
G1 X152.747 Y147.201 E20.83874
G1 X152.426 Y146.816 E20.84534
G1 X152.17 Y146.384 E20.85195
G1 X151.987 Y145.917 E20.85856
G1 X151.879 Y145.428 E20.86515
G1 X151.85 Y145 E20.8708
G1 X151.85 Y95 E21.52917
G1 X151.89 Y94.5 E21.53577
G1 X152.009 Y94.013 E21.54238
G1 X152.203 Y93.55 E21.54899
G1 X152.469 Y93.125 E21.55559
G1 X152.799 Y92.747 E21.56219
G1 X153.184 Y92.426 E21.56879
G1 X153.616 Y92.17 E21.57541
G1 X154.083 Y91.987 E21.58201
G1 X154.572 Y91.879 E21.58861
G1 X155 Y91.85 E21.59425
